X:1
T:Fraenkischer Dreher
R:dreher
A:Deutschland
%%textfont Helvetica-Narrow 10pt
%%begintext align
B:"Das kleine dicke Liederbuch", Heide Buhmann, Hanspeter Haeseler, 5.Auflage, eigenverlag, Schluechtern 1989
N:dort ganz in F, einstimmig mit harmonie-buchstaben, seite 210
N:Gleich lautendes stueck in: "Schule fuer Drehleier", Barbara Behringer, seite 55 
%%endtext
F:http://simonwascher.info
Z:abc transcription Simon Wascher
M:2/4
L:1/8
K:G %Transposed from F
.D |\
.G.F.G.A | .B.D.G.B | .A.D.E.F | .G.B.d.D |
GFGA | BDGB | ADEF | G2 z2 :|
|: B |\
A2 c2 | BDGB | ADFA | GBed |
A2 c2 | BDGB | ADFA | G2 z2 :|
%%wordsfont Times-Italic 11pt
W:aus Simon Waschers TradArchiv
